outputs/icons/device/location_round.svg

<svg xmlns="http://www.w3.org/2000/svg" width="1200" height="1200" fill="none"><g clip-path="url(#a)"><path fill="#000" d="M1047 550c-23-208.5-188.5-374-397-397v-53c0-27.5-22.5-50-50-50s-50 22.5-50 50v53c-208.5 23-374 188.5-397 397h-53c-27.5 0-50 22.5-50 50s22.5 50 50 50h53c23 208.5 188.5 374 397 397v53c0 27.5 22.5 50 50 50s50-22.5 50-50v-53c208.5-23 374-188.5 397-397h53c27.5 0 50-22.5 50-50s-22.5-50-50-50zM600 950c-193.5 0-350-156.5-350-350s156.5-350 350-350 350 156.5 350 350-156.5 350-350 350"/></g><defs><clipPath id="a"><path fill="#fff" d="M0 0h1200v1200H0z"/></clipPath></defs></svg>

<svg width="1200" height="1200" viewBox="0 0 1200 1200" fill="none" xmlns="http://www.w3.org/2000/svg"><g clip-path="url(#clip0_231_4432)"><path d="M1047 550C1024 341.5 858.5 176 650 153V100C650 72.5 627.5 50 600 50C572.5 50 550 72.5 550 100V153C341.5 176 176 341.5 153 550H100C72.5 550 50 572.5 50 600C50 627.5 72.5 650 100 650H153C176 858.5 341.5 1024 550 1047V1100C550 1127.5 572.5 1150 600 1150C627.5 1150 650 1127.5 650 1100V1047C858.5 1024 1024 858.5 1047 650H1100C1127.5 650 1150 627.5 1150 600C1150 572.5 1127.5 550 1100 550H1047ZM600 950C406.5 950 250 793.5 250 600C250 406.5 406.5 250 600 250C793.5 250 950 406.5 950 600C950 793.5 793.5 950 600 950Z" fill="black"/></g><defs><clipPath id="clip0_231_4432"><path width="24" fill="white" d="M0 0H1200V1200H0V0z"/></clipPath></defs></svg>
